assets/img/disease/infectious_hover.svg

<?xml version="1.0" encoding="UTF-8" standalone="no"?>
<svg
   xmlns:dc="http://purl.org/dc/elements/1.1/"
   xmlns:cc="http://creativecommons.org/ns#"
   xmlns:rdf="http://www.w3.org/1999/02/22-rdf-syntax-ns#"
   xmlns:svg="http://www.w3.org/2000/svg"
   xmlns="http://www.w3.org/2000/svg"
   xmlns:xlink="http://www.w3.org/1999/xlink"
   xmlns:sodipodi="http://sodipodi.sourceforge.net/DTD/sodipodi-0.dtd"
   xmlns:inkscape="http://www.inkscape.org/namespaces/inkscape"
   version="1.1"
   width="600"
   height="600"
   id="svg6516"
   inkscape:version="0.48.2 r9819"
   sodipodi:docname="infectious_hover.svg">
 
  <defs
     id="defs6518">
    <path
       d="M 2.8117,-1.046 A 3 3 0 0 1 .5,2.958 V 4.5119 A 10.5 10.5 0 0 1 2,25.3078 V 25.8661 A 15 15 0 0 0 14.7975,8.5433 15 15 0 0 0 23.4007,-11.201 L 22.9172,-10.9218 A 10.5 10.5 0 0 1 4.1574,-1.8229 z M 6.2265,7.825 A 10 10 0 0 1 -6.2265,7.825 9.5 9.5 0 0 0 -8.4021,10.5667 13.5 13.5 0 0 0 8.4021,10.5667 10 10 0 0 0 6.2265,7.825 z"
       id="p"
       transform="scale(10,-10) translate(26,-26)" />
  </defs>
  <use
     xlink:href="#p"
     id="use6521"
     style="fill:#71b2e2;fill-opacity:1" />
  <use
     xlink:href="#p"
     transform="rotate(120, 260, 260)"
     id="use6523"
     style="fill:#71b2e2;fill-opacity:1" />
  <use
     xlink:href="#p"
     transform="rotate(240, 260, 260)"
     id="use6525"
     style="fill:#71b2e2;fill-opacity:1" />
</svg>

<svg xmlns="http://www.w3.org/2000/svg" xmlns:xlink="http://www.w3.org/1999/xlink" width="600" height="600"><defs><path d="M2.812-1.046a3 3 0 0 1-2.312 4.004v1.554a10.5 10.5 0 0 1 1.5 20.796v.558a15 15 0 0 0 12.797-17.323 15 15 0 0 0 8.603-19.744l-.483.279a10.5 10.5 0 0 1-18.76 9.099zm3.415 8.871a10 10 0 0 1-12.453 0 9.5 9.5 0 0 0-2.176 2.742 13.5 13.5 0 0 0 16.804 0 10 10 0 0 0-2.176-2.742z" id="a" transform="scale(10 -10) translate(26 -26)"/></defs><use xlink:href="#a" fill="#71b2e2"/><use xlink:href="#a" transform="rotate(120 260 260)" fill="#71b2e2"/><use xlink:href="#a" transform="rotate(240 260 260)" fill="#71b2e2"/></svg>
